X: 1
T: William Taylor's Tabletop Hornpipe    [Gm]
C: David Shepherd (orig. AABB)
S: from Liz Donaldson; arr. by T. Traub 4-27-2003
M: 4/4
L: 1/8
K: Gm
d2 |\
"Gm"G2 G2 GABG | "Dm"ABAG =F2 D2 | "Bb"d2 d2 cdcB | "F"AGFG "D"ABcA |\
"Gm"G2 G2 GABG | "Dm"ABAG =F2 D2 | "Bb"dcBA "Dm"GBAF | "Gm"G2 G2 G2 ||
GB |\
"Gm"dBGB d2 d2 | "F"cAFA c2 c2 | "Eb"BAGF G2 GB | "F"AGFG A2 A2 |\
"Bb"dBFB d2 d2 | "Cm"cGEG c2 c2 | "Gm"BAGF "F"GBAF | "G"G2 G2 G2 |]
